X: 4306
T: Boffyflow And Spike
R: reel
M: 4/4
K: Emixolydian
|:G3A Bcde|dcBA BAGE|G3A Bcde|dcBA d4|
G3A Bcde|dcBA BAGE|GABc BAGE|DB.D2 .E4:|
[K:EDor]e2ef edBA|Bdef edef|gfed edBA|Bcdc d4|
e2ef edBA|Bdef e2 ef|gfed edBA|BAJ^G2 E4:|
[K:C]g3a gece|g3a gec2|c3B ABcd|e4d4|
g3a gece|g3a gec2|c3B ABcd|e3f/e/ _e4||

